svg/emoji_u1fabb.svg

<?xml version="1.0" encoding="utf-8"?>
<!-- Generator: Adobe Illustrator 26.3.1, SVG Export Plug-In . SVG Version: 6.00 Build 0)  -->
<svg version="1.1" id="Layer_5" xmlns="http://www.w3.org/2000/svg" xmlns:xlink="http://www.w3.org/1999/xlink" x="0" y="0"
	 viewBox="0 0 128 128" style="enable-background:new 0 0 128 128;" xml:space="preserve">
<g>
	<g>
		<path style="fill:#7CB243;" d="M33.08,83.15c5.87,3.39,27.98,20.15,32.44,31.51c1.58,4.01-2.9,7.89-9.83,4.01
			c-7.48-4.19-13.07-11.22-18.12-17.99c-2.82-3.78-5.93-11.12-6.74-14.74C30.4,84.01,31.38,82.17,33.08,83.15z"/>
		<path style="fill:#388E3C;" d="M62.68,117.54l0.26-8.9c-1.32-3.13-8.31-8.41-10.73-10.7c-2.62-2.48-5.34-4.86-8.18-7.08
			c-2.26-1.77-11.28-8.84-11.45-7.8c-0.59,3.59,3.07,10.53,14.13,22.1C56.28,115.16,62.68,117.54,62.68,117.54z"/>
		<line style="fill:none;stroke:#7CB243;stroke-width:4.629;stroke-miterlimit:10;" x1="63.55" y1="77.53" x2="63.55" y2="115"/>
		<path style="fill:#BBD047;" d="M84.37,93.12c6.96-5.06,10.77-6.76,12.82-6.97c-0.52-1.55-3.53-2.3-15.2,5.27
			c-4.19,2.71-31.31,24.63-30.29,29.27c0.27,1.24,1.98,2.05,3.9,2.57C56.27,117.59,80.49,95.94,84.37,93.12z"/>
		<path style="fill:#7CB243;" d="M97.18,86.15c-2.05,0.21-5.86,1.91-12.82,6.97c-3.88,2.82-28.18,24.47-28.86,30.14
			c2.13,0.57,4.54,0.77,5.58,0.74c3.35-0.1,6.69-1.29,9.18-3.56c2.02-1.85,24.63-29.82,26.62-32.31
			C97.1,87.85,97.43,86.9,97.18,86.15z"/>
	</g>
	<g>
		<path style="fill:#7350D3;" d="M82.42,53.83c0,0,4.98-1.66,7.75-5.11c2.33-2.9,3.22-7.73,1.15-9.62c-2.07-1.89-4.71,5.22-9.58,0.3
			c-0.36-0.37-9.37-20.17-9.37-20.17s7.75-3.02,5.99-10.66c-0.66-2.87-5.88,1.79-8.29,3.33c-0.28-2.27-3.44-9.01-4.88-7.74
			c-5.23,4.61-1.9,10.74-1.14,12.41c1.2,2.64-3.26,5.3-8.31,6.49c-5.43,1.28-8.75-4.7-10.77-2.59c-2.97,3.11,1.19,8.21,4.6,11.75
			c0,0,2,11.06-1.3,14.19c-3.54,3.36-4.96,4.81-3.85,9.83c0.45,2.04-3.78-2.37-5.21-3.95c-0.88-0.97-2-2.15-3.27-1.81
			c-1.19,0.33-1.61,1.81-1.61,3.05c-0.01,3.09,1.35,7.78,3.66,9.84c-2.77,1.53-4.05,5.12-4.39,6.87s-0.25,3.01,1.24,3.28
			c2.15,0.38,6.42-4.07,10.09-3.36c2.02,0.39,10.14,13.2,10.56,15.2c0.88,4.22-2.92,7.92-0.64,9.65c2.82,2.13,8.87-1.45,9.47-7.83
			c0,0,2.11,5.4,8.96,5.69c3.36,0.14,4.58-1.26,4.6-2.19c0.04-1.54-2.37-3.05-3.48-4.13c-1.82-1.75-1.45-3.6,0-4.89
			c2.2-1.96,4.32-0.19,5.34,1.98c0.43,0.91,1.67,4.28,3.62,3.86c1.46-0.31,2.13-1.5,2.34-2.8c0.28-1.74,0.56-7.17-3.82-9.94
			c1.96-0.47,6-1.5,7.52-4.1C89.77,70.08,82.42,53.83,82.42,53.83z"/>
		<path style="fill:#AB7CF7;" d="M71.06,48.35c1.41-1.59-0.05-2.64-1.52-3.08c-2.1-0.78-8.54-2.97-8.44-5.58
			c0.09-0.74,0.5-1.44,0.87-2.06c1.51-2.72,3.55-5.53,3.62-8.73c-0.09-1.47-1.37-2.38-2.8-2.11c-3.73,0.37-5.9,4.01-8.25,6.56
			c-1.37,1.49-1.97,1.05-2.97-0.14c-1.25-1.47-2.18-3.57-3.01-5.89c-1.12-3.12-4.14-1.21-4.74,1.91c-0.5,2.58,0.36,6.38,1.67,8.65
			c0.45,0.78,1.14,1.61,0.31,2.33c-2.11,1.85-4.98,1.68-7.52,2.83c-1,0.45-3.27,2.06-1.45,4.14c1.12,1.29,4.65,2.19,7.66,1.71
			c1.24-0.2,3.83-1,4.74,0.58c1.6,2.78,0.76,7.42,2.84,10.86c0.98,1.82,2.86,2.4,3.97,0.4c1.54-2.51,1.77-5.61,1.87-8.55
			c0.09-2.72,1.49-2.63,2.97-2.3C64.14,50.58,68.37,51.38,71.06,48.35z"/>
		<path style="fill:#AB7CF7;" d="M67.19,81.18c0.02-1.96-5.25-3.76-6.97-4.73c-1.26-0.71-2.04-1.27-1.2-2.81
			c1.34-2,3.26-3.79,3.76-6.3c0.48-2.44-0.59-4.19-2.58-3.55c-2.24,0.72-4.25,3.59-6.27,4.72c-1.51,0.85-2.81,0.52-3.79-1.01
			c-1.7-2.67-1.67-6.43-3.35-7.62c-0.97-0.75-2.66-0.13-3.25,0.82c-1.96,3.17-1.2,7.93,0.23,10.97c0.27,0.56,0.57,1.21,0.3,1.78
			c-1.18,1.52-3.43,1.48-5.16,1.89c-1.32,0.33-2.6,0.91-2.59,2.52c0.01,1.4,0.79,3.18,7.41,3.1c1.21-0.01,2.91-0.33,2.8,1.18
			c-0.15,2.18-0.34,5.26,1.06,8.43c1.11,2.53,3.77,2.24,4.58,0.17c1.24-3.16,1.21-5.25,1.89-6.83c0.58-1.35,1.91-1.61,2.77-1.23
			c2.94,1.28,6.17,1.9,9.05,0.48C66.65,82.79,67.18,82.09,67.19,81.18z"/>
		<path style="fill:#AB7CF7;" d="M92.16,29.68c-3.13-2.88-5.5-3.63-8.94-4.66c0.96-2.54,1.65-4.84,2.14-7.5
			c0.51-2.75-0.44-5.44-2.84-4.89c-0.93,0.21-1.7,0.87-2.28,1.63c-0.57,0.76-2.58,5.84-3.36,7.04c-0.7,1.07-1.37-0.3-2.23-1.34
			c-3.85-4.69-8.09-4.97-8.49-2.68c-0.28,1.54,1.92,2.37,3.96,8.59c0.75,2.28,1.56,5.85,2.98,7.78c0.87,1.18,3.42,2.75,4.56,3.68
			c2.4,1.95,5.95,5.94,7.68,5.52c0.73-0.18,1.18-1.57,0.49-3.57c-0.93-2.71-3.78-5.73-3.02-6.61c0.24-0.28,2.23-0.15,4.41,0.31
			c2.33,0.49,4.23,1.77,5.95,0.88C94.28,33.3,93.21,30.66,92.16,29.68z"/>
		<path style="fill:#AB7CF7;" d="M92.17,69.31c-0.53-2.14-1.52-4.16-2.89-5.89c-0.25-0.27-0.38-0.66-0.04-0.9
			c2.22-1.95,4.96-4.33,4.65-7.57c-0.26-2.18-1.84-2.38-3.58-1.5c-1.61,0.66-3.03,1.55-4.77,1.68c-1.06,0.08-1.23-0.44-1.28-1.33
			c-0.25-4.57-2.25-11.04-6.65-10.49c-1.45,0.18-1.7,1.92-1.48,3.22c0.16,1.62,0.98,7.05,0.68,8.32c-0.42,1.77-1.42,1.78-5.91,1.5
			c-2.02,0-5.67-0.81-5.99,2.12c-0.28,2.61,3.29,4.71,5.97,5.1c0.78,0.15,2.35,0.1,2.61,1.09c0.12,0.49-0.05,1-0.26,1.46
			c-0.84,1.86-2.19,3.43-3.38,5.08c-0.56,0.78-1.63,3.04,1.44,3.93c2.3,0.66,7.8-2.83,9.58-6.56c0.51-1.07,1.84-1.35,2.77-0.48
			c1.26,1.18,2.84,3.08,3.5,4.35c0.55,1.05,1.23,2.22,2.39,2.49c1.11,0.25,2.25-0.56,2.69-1.61C92.72,72.06,92.49,70.61,92.17,69.31
			z"/>
		<g>
			<path style="fill:#AB7CF7;" d="M60.03,8.15c-1.35-2.93-3.28-3.3-4.58-1.53s-0.09,8.6-0.09,8.6s-3.64-0.57-4.44-0.58
				c-1.44-0.02-2.77,0.12-3.12,1.07c-0.35,0.96,0.96,3.25,4.49,5.6c4.47,2.98,8.28,3.26,10.23,1.4C63.7,21.58,63.4,15.47,60.03,8.15
				z"/>
		</g>
		<circle style="fill:#FCEBCD;" cx="52.56" cy="42.79" r="3.72"/>
		
			<ellipse transform="matrix(0.866 -0.5 0.5 0.866 -3.9581 42.7639)" style="fill:#FCEBCD;" cx="77.82" cy="28.77" rx="2.38" ry="3.72"/>
		
			<ellipse transform="matrix(0.8901 -0.4557 0.4557 0.8901 -29.2864 31.4149)" style="fill:#FCEBCD;" cx="50.51" cy="76.45" rx="3.01" ry="3.9"/>
		
			<ellipse transform="matrix(0.9999 -0.013 0.013 0.9999 -0.7791 1.0645)" style="fill:#FCEBCD;" cx="81.31" cy="60.33" rx="2.76" ry="3.72"/>
	</g>
</g>
</svg>

<?xml version="1.0" encoding="UTF-8" standalone="no"?><!DOCTYPE svg PUBLIC "-//W3C//DTD SVG 1.1//EN" "http://www.w3.org/Graphics/SVG/1.1/DTD/svg11.dtd"><svg width="128px" height="128px" version="1.1" xmlns="http://www.w3.org/2000/svg" xmlns:xlink="http://www.w3.org/1999/xlink" xml:space="preserve" xmlns:serif="http://www.serif.com/" style="fill-rule:evenodd;clip-rule:evenodd;stroke-miterlimit:10;"><g><g><path d="M33.08,83.15C38.95,86.54 61.06,103.3 65.52,114.66C67.1,118.67 62.62,122.55 55.69,118.67C48.21,114.48 42.62,107.45 37.57,100.68C34.75,96.9 31.64,89.56 30.83,85.94C30.4,84.01 31.38,82.17 33.08,83.15Z" style="fill:#6fa03b;fill-rule:nonzero;"/><path d="M62.68,117.54L62.94,108.64C61.62,105.51 54.63,100.23 52.21,97.94C49.59,95.46 46.87,93.08 44.03,90.86C41.77,89.09 32.75,82.02 32.58,83.06C31.99,86.65 35.65,93.59 46.71,105.16C56.28,115.16 62.68,117.54 62.68,117.54Z" style="fill:#487628;fill-rule:nonzero;"/><path d="M63.55,77.53L63.55,115" style="fill:none;fill-rule:nonzero;stroke:#6fa03b;stroke-width:4.63px;"/><path d="M84.37,93.12C91.33,88.06 95.14,86.36 97.19,86.15C96.67,84.6 93.66,83.85 81.99,91.42C77.8,94.13 50.68,116.05 51.7,120.69C51.97,121.93 53.68,122.74 55.6,123.26C56.27,117.59 80.49,95.94 84.37,93.12Z" style="fill:#8ec54f;fill-rule:nonzero;"/><path d="M97.18,86.15C95.13,86.36 91.32,88.06 84.36,93.12C80.48,95.94 56.18,117.59 55.5,123.26C57.63,123.83 60.04,124.03 61.08,124C64.43,123.9 67.77,122.71 70.26,120.44C72.28,118.59 94.89,90.62 96.88,88.13C97.1,87.85 97.43,86.9 97.18,86.15Z" style="fill:#7cb342;fill-rule:nonzero;"/></g><g><path d="M82.42,53.83C82.42,53.83 87.4,52.17 90.17,48.72C92.5,45.82 93.39,40.99 91.32,39.1C89.25,37.21 86.61,44.32 81.74,39.4C81.38,39.03 72.37,19.23 72.37,19.23C72.37,19.23 80.12,16.21 78.36,8.57C77.7,5.7 72.48,10.36 70.07,11.9C69.79,9.63 66.63,2.89 65.19,4.16C59.96,8.77 63.29,14.9 64.05,16.57C65.25,19.21 60.79,21.87 55.74,23.06C50.31,24.34 46.99,18.36 44.97,20.47C42,23.58 46.16,28.68 49.57,32.22C49.57,32.22 51.57,43.28 48.27,46.41C44.73,49.77 43.31,51.22 44.42,56.24C44.87,58.28 40.64,53.87 39.21,52.29C38.33,51.32 37.21,50.14 35.94,50.48C34.75,50.81 34.33,52.29 34.33,53.53C34.32,56.62 35.68,61.31 37.99,63.37C35.22,64.9 33.94,68.49 33.6,70.24C33.26,71.99 33.35,73.25 34.84,73.52C36.99,73.9 41.26,69.45 44.93,70.16C46.95,70.55 55.07,83.36 55.49,85.36C56.37,89.58 52.57,93.28 54.85,95.01C57.67,97.14 63.72,93.56 64.32,87.18C64.32,87.18 66.43,92.58 73.28,92.87C76.64,93.01 77.86,91.61 77.88,90.68C77.92,89.14 75.51,87.63 74.4,86.55C72.58,84.8 72.95,82.95 74.4,81.66C76.6,79.7 78.72,81.47 79.74,83.64C80.17,84.55 81.41,87.92 83.36,87.5C84.82,87.19 85.49,86 85.7,84.7C85.98,82.96 86.26,77.53 81.88,74.76C83.84,74.29 87.88,73.26 89.4,70.66C89.77,70.08 82.42,53.83 82.42,53.83Z" style="fill:#a54fb4;fill-rule:nonzero;"/><path d="M71.06,48.35C72.47,46.76 71.01,45.71 69.54,45.27C67.44,44.49 61,42.3 61.1,39.69C61.19,38.95 61.6,38.25 61.97,37.63C63.48,34.91 65.52,32.1 65.59,28.9C65.5,27.43 64.22,26.52 62.79,26.79C59.06,27.16 56.89,30.8 54.54,33.35C53.17,34.84 52.57,34.4 51.57,33.21C50.32,31.74 49.39,29.64 48.56,27.32C47.44,24.2 44.42,26.11 43.82,29.23C43.32,31.81 44.18,35.61 45.49,37.88C45.94,38.66 46.63,39.49 45.8,40.21C43.69,42.06 40.82,41.89 38.28,43.04C37.28,43.49 35.01,45.1 36.83,47.18C37.95,48.47 41.48,49.37 44.49,48.89C45.73,48.69 48.32,47.89 49.23,49.47C50.83,52.25 49.99,56.89 52.07,60.33C53.05,62.15 54.93,62.73 56.04,60.73C57.58,58.22 57.81,55.12 57.91,52.18C58,49.46 59.4,49.55 60.88,49.88C64.14,50.58 68.37,51.38 71.06,48.35Z" style="fill:#ca98d3;fill-rule:nonzero;"/><path d="M67.19,81.18C67.21,79.22 61.94,77.42 60.22,76.45C58.96,75.74 58.18,75.18 59.02,73.64C60.36,71.64 62.28,69.85 62.78,67.34C63.26,64.9 62.19,63.15 60.2,63.79C57.96,64.51 55.95,67.38 53.93,68.51C52.42,69.36 51.12,69.03 50.14,67.5C48.44,64.83 48.47,61.07 46.79,59.88C45.82,59.13 44.13,59.75 43.54,60.7C41.58,63.87 42.34,68.63 43.77,71.67C44.04,72.23 44.34,72.88 44.07,73.45C42.89,74.97 40.64,74.93 38.91,75.34C37.59,75.67 36.31,76.25 36.32,77.86C36.33,79.26 37.11,81.04 43.73,80.96C44.94,80.95 46.64,80.63 46.53,82.14C46.38,84.32 46.19,87.4 47.59,90.57C48.7,93.1 51.36,92.81 52.17,90.74C53.41,87.58 53.38,85.49 54.06,83.91C54.64,82.56 55.97,82.3 56.83,82.68C59.77,83.96 63,84.58 65.88,83.16C66.65,82.79 67.18,82.09 67.19,81.18Z" style="fill:#ca98d3;fill-rule:nonzero;"/><path d="M92.16,29.68C89.03,26.8 86.66,26.05 83.22,25.02C84.18,22.48 84.87,20.18 85.36,17.52C85.87,14.77 84.92,12.08 82.52,12.63C81.59,12.84 80.82,13.5 80.24,14.26C79.67,15.02 77.66,20.1 76.88,21.3C76.18,22.37 75.51,21 74.65,19.96C70.8,15.27 66.56,14.99 66.16,17.28C65.88,18.82 68.08,19.65 70.12,25.87C70.87,28.15 71.68,31.72 73.1,33.65C73.97,34.83 76.52,36.4 77.66,37.33C80.06,39.28 83.61,43.27 85.34,42.85C86.07,42.67 86.52,41.28 85.83,39.28C84.9,36.57 82.05,33.55 82.81,32.67C83.05,32.39 85.04,32.52 87.22,32.98C89.55,33.47 91.45,34.75 93.17,33.86C94.28,33.3 93.21,30.66 92.16,29.68Z" style="fill:#ca98d3;fill-rule:nonzero;"/><path d="M92.17,69.31C91.64,67.17 90.65,65.15 89.28,63.42C89.03,63.15 88.9,62.76 89.24,62.52C91.46,60.57 94.2,58.19 93.89,54.95C93.63,52.77 92.05,52.57 90.31,53.45C88.7,54.11 87.28,55 85.54,55.13C84.48,55.21 84.31,54.69 84.26,53.8C84.01,49.23 82.01,42.76 77.61,43.31C76.16,43.49 75.91,45.23 76.13,46.53C76.29,48.15 77.11,53.58 76.81,54.85C76.39,56.62 75.39,56.63 70.9,56.35C68.88,56.35 65.23,55.54 64.91,58.47C64.63,61.08 68.2,63.18 70.88,63.57C71.66,63.72 73.23,63.67 73.49,64.66C73.61,65.15 73.44,65.66 73.23,66.12C72.39,67.98 71.04,69.55 69.85,71.2C69.29,71.98 68.22,74.24 71.29,75.13C73.59,75.79 79.09,72.3 80.87,68.57C81.38,67.5 82.71,67.22 83.64,68.09C84.9,69.27 86.48,71.17 87.14,72.44C87.69,73.49 88.37,74.66 89.53,74.93C90.64,75.18 91.78,74.37 92.22,73.32C92.72,72.06 92.49,70.61 92.17,69.31Z" style="fill:#ca98d3;fill-rule:nonzero;"/><g><path d="M60.03,8.15C58.68,5.22 56.75,4.85 55.45,6.62C54.15,8.39 55.36,15.22 55.36,15.22C55.36,15.22 51.72,14.65 50.92,14.64C49.48,14.62 48.15,14.76 47.8,15.71C47.45,16.67 48.76,18.96 52.29,21.31C56.76,24.29 60.57,24.57 62.52,22.71C63.7,21.58 63.4,15.47 60.03,8.15Z" style="fill:#ca98d3;fill-rule:nonzero;"/></g><circle cx="52.56" cy="42.79" r="3.72" style="fill:#fff7b3;"/><g transform="matrix(0.866,-0.5,0.5,0.866,-3.9581,42.7639)"><ellipse cx="77.82" cy="28.77" rx="2.38" ry="3.72" style="fill:#fff7b3;"/></g><g transform="matrix(0.8901,-0.4557,0.4557,0.8901,-29.2864,31.4149)"><ellipse cx="50.51" cy="76.45" rx="3.01" ry="3.9" style="fill:#fff7b3;"/></g><g transform="matrix(0.9999,-0.013,0.013,0.9999,-0.7791,1.0645)"><ellipse cx="81.31" cy="60.33" rx="2.76" ry="3.72" style="fill:#fff7b3;"/></g></g></g></svg>
